svg/icon/ella.svg

<svg height="32" viewBox="0 0 32 32" width="32" xmlns="http://www.w3.org/2000/svg" xmlns:xlink="http://www.w3.org/1999/xlink"><defs><linearGradient id="a" x1="50%" x2="50%" y1="0%" y2="100%"><stop offset="0" stop-color="#fff" stop-opacity=".5"/><stop offset="1" stop-opacity=".5"/></linearGradient><circle id="b" cx="16" cy="15" r="15"/><filter id="c" height="111.7%" width="111.7%" x="-5.8%" y="-4.2%"><feOffset dy=".5" in="SourceAlpha" result="shadowOffsetOuter1"/><feGaussianBlur in="shadowOffsetOuter1" result="shadowBlurOuter1" stdDeviation=".5"/><feComposite in="shadowBlurOuter1" in2="SourceAlpha" operator="out" result="shadowBlurOuter1"/><feColorMatrix in="shadowBlurOuter1" values="0 0 0 0 0   0 0 0 0 0   0 0 0 0 0  0 0 0 0.199473505 0"/></filter><path id="d" d="m18.0726138 12.2121487-2.0726138-2.0726138-2.0867294 2.0867294-2.1638964-2.1638964 4.2506258-6.0623679 4.2795656 6.0051968zm-4.8828943.7376667-2.0501846 2.0501846 2.0726138 2.0726138-2.1563182 2.1563181-6.0558305-4.2289319 5.9900092-4.2498948zm5.5840162 4.136914 2.0867294-2.0867294-2.0643002-2.0643002 2.2253484-2.2253484 5.9784867 4.2896486-6.0443705 4.2686232zm-4.8380359.7094355 2.0643002 2.0643002 2.0501846-2.0501846 2.1823091 2.1823091-4.2324937 6.0074104-4.2037333-6.0644021zm2.0643002-6.2679257 3.4717608 3.4717608-3.4717608 3.4717608-3.4717608-3.4717608z"/><filter id="e" height="115.9%" width="115.9%" x="-8%" y="-5.7%"><feOffset dy=".5" in="SourceAlpha" result="shadowOffsetOuter1"/><feGaussianBlur in="shadowOffsetOuter1" result="shadowBlurOuter1" stdDeviation=".5"/><feColorMatrix in="shadowBlurOuter1" values="0 0 0 0 0   0 0 0 0 0   0 0 0 0 0  0 0 0 0.204257246 0"/></filter></defs><g fill="none" fill-rule="evenodd"><use fill="#000" filter="url(#c)" xlink:href="#b"/><use fill="#396a28" xlink:href="#b"/><use fill="url(#a)" xlink:href="#b"/><circle cx="16" cy="15" r="14.5" stroke="#000" stroke-opacity=".097"/><use fill="#000" filter="url(#e)" xlink:href="#d"/><use fill="#fff" xlink:href="#d"/></g></svg>

<svg xmlns="http://www.w3.org/2000/svg" xmlns:xlink="http://www.w3.org/1999/xlink" width="32" height="32" viewBox="0 0 32 32">
  <defs>
    <linearGradient id="ella-c" x1="50%" x2="50%" y1="0%" y2="100%">
      <stop offset="0%" stop-color="#FFF" stop-opacity=".5"/>
      <stop offset="100%" stop-opacity=".5"/>
    </linearGradient>
    <circle id="ella-b" cx="16" cy="15" r="15"/>
    <filter id="ella-a" width="111.7%" height="111.7%" x="-5.8%" y="-4.2%" filterUnits="objectBoundingBox">
      <feOffset dy=".5" in="SourceAlpha" result="shadowOffsetOuter1"/>
      <feGaussianBlur in="shadowOffsetOuter1" result="shadowBlurOuter1" stdDeviation=".5"/>
      <feComposite in="shadowBlurOuter1" in2="SourceAlpha" operator="out" result="shadowBlurOuter1"/>
      <feColorMatrix in="shadowBlurOuter1" values="0 0 0 0 0   0 0 0 0 0   0 0 0 0 0  0 0 0 0.199473505 0"/>
    </filter>
    <path id="ella-e" d="M18.0726138,12.2121487 L16,10.1395349 L13.9132706,12.2262643 L11.7493742,10.0623679 L16,4 L20.2795656,10.0051968 L18.0726138,12.2121487 Z M13.1897195,12.9498154 L11.1395349,15 L13.2121487,17.0726138 L11.0558305,19.2289319 L5,15 L10.9900092,10.7501052 L13.1897195,12.9498154 Z M18.7737357,17.0867294 L20.8604651,15 L18.7961649,12.9356998 L21.0215133,10.7103514 L27,15 L20.9556295,19.2686232 L18.7737357,17.0867294 Z M13.9356998,17.7961649 L16,19.8604651 L18.0501846,17.8102805 L20.2324937,19.9925896 L16,26 L11.7962667,19.9355979 L13.9356998,17.7961649 Z M16,11.5282392 L19.4717608,15 L16,18.4717608 L12.5282392,15 L16,11.5282392 Z"/>
    <filter id="ella-d" width="115.9%" height="115.9%" x="-8%" y="-5.7%" filterUnits="objectBoundingBox">
      <feOffset dy=".5" in="SourceAlpha" result="shadowOffsetOuter1"/>
      <feGaussianBlur in="shadowOffsetOuter1" result="shadowBlurOuter1" stdDeviation=".5"/>
      <feColorMatrix in="shadowBlurOuter1" values="0 0 0 0 0   0 0 0 0 0   0 0 0 0 0  0 0 0 0.204257246 0"/>
    </filter>
  </defs>
  <g fill="none" fill-rule="evenodd">
    <use fill="#000" filter="url(#ella-a)" xlink:href="#ella-b"/>
    <use fill="#396A28" xlink:href="#ella-b"/>
    <use fill="url(#ella-c)" style="mix-blend-mode:soft-light" xlink:href="#ella-b"/>
    <circle cx="16" cy="15" r="14.5" stroke="#000" stroke-opacity=".097"/>
    <g>
      <use fill="#000" filter="url(#ella-d)" xlink:href="#ella-e"/>
      <use fill="#FFF" xlink:href="#ella-e"/>
    </g>
  </g>
</svg>
